!!!OTL: Ergo bibamus!
!!!OTL-incipit: HIER SIND WIR VERSAMMELT
!!!COM: M. Eberwein
!!!ARE: Europa, Mitteleuropa, Deutschland
!!!SCT: F0499
!!!TXL: @@DE, (@@LAt)
!!!YEM: Copyright 1995, estate of Helmut Schaffrath.
**kern	**text
*ICvox	*
*M4/4	*
*met(c)	*
*k[]	*
*C:	*
!LO:TX:a:t=Keäftig.	!
{8g	Hier
=1	=1
4g	ſind
8e	wir
8f	ver-
4g	-ſam-
8a	-melt
8b/	ʒu
=2	=2
4cc/	löb-
8b/	-li-
8a	-chem
4g	Thun,
8r}	.
{8g	drum,
=3	=3
4b/	Brü-
8b/	-der-
8b/	-chen,
4cc/	er-
8b/	-go
8a	bi-
=4	=4
(4g	-ba-
4f#)	.
4g	-mus!
8r}	.
{8g	Die
=5	=5
4g	Glä-
8e	-ſer,
8f	ſie
4g	klin-
8a	-gen,
8b/	Ge-
=6	=6
4cc/	-ſprä-
8b/	-che,
8a	ſie
4g	ruhn;
8r}	.
{8g	be-
=7	=7
4b/	-her-
8b/	-ʒi-
8b/	-get
4cc/	er-
8b/	-go
8a/	bi-
=8	=8
(4g	-ba-
4f#)	.
4g	-mus!
8r}	.
{8g	Das
=9	=9
4dd/	heißt
8dd/	noch
8cc/	ein
4b/	altes,
8b/	.
8a	ein
=10	=10
4g	tüchtiges
8g	.
8f	.
4e	Wort,
8r}	.
{8g	es
=11	=11
4dd/	paſſet
8dd/	.
8cc/	ʒum
4b/	erſten
8b/	.
8a	und
=12	=12
4g	paſſet
8g	.
8f	ſo
4e	fort,
8r}	.
{8c	und
=13	=13
(8eL	ſchal-
8gJ)	.
8a'	-let,
8b'	ein
4cc	Echo,
8g	.
8g	vom
=14	=14
(8aL	feſt-
8bJ)	.
8cc'	-lie
8dd'	chen
4ee	Ort,
8r}	.
{8ee	ein
=15	=15
4ee	herr-
8ee	-li-
8ee	-ches
4ff	er-
8ee/	-go
8dd/	bi-
=16	=16
(4cc/	-ba-
4b/)	.
4cc/	-mus!
8r}	.
{8ee	ein
=17	=17
4ee	herr-
8ee	-li-
8ee	-ches
4ff	er-
8ee/	-go
8dd/	bi-
=18	=18
(2cc/	-ba-
2b/)	.
=19	=19
2cc/;	-mus!
4r	.
8r}	.
==	==
!!!AGN: Studenten -, Trink - Lied
!!!ONB: ESAC (Essen Associative Code) Database: FINK
!!!AMT: simple quadruple
!!!AIN: vox
!!!EED: Helmut Schaffrath
!!!EEV: 1.0
!!Text: J. W. Goethe
!!!GTL: Studentenlieder
!!!source: Musikalischer Hausschatz der Deutschen. Eine Sammlung von über 1000 Liedern und Gesängen mit Singstimmen und Klavierbegleitung. Leipzig, Litterarisches Verlags-Haus.
!!!page: 317
!!!ENC: Anna Maria Matuszewska
!!!EEV: 2025/03/18
*-	*-
